!!!OTL@@FUR: L'ai domandade di sabide
!!!OTL@IT: l'ho richiesta di sabato
!!!OTL@EN: I asked her on Saturday
**kern
*clefG2
*k[]
*C:
*M6/8
*MM120
*>[A]
=1
*>A
8g
8g
8g
8g
8e
8cc
=2
4a
8g
4.g
=3
8cc
8cc
8dd
4ee
8cc
=4
2.a
=5
8dd
8dd
8dd
4dd
8cc
=6
4cc
8b
4.b
=7
8b
8b
8b
4cc
8b
=8
4a
8g
4.g
=9
8g
8g
8g
8g
8e
8cc
=10
4a
8g
4.g
=11
8cc
8cc
8dd
4ee
8cc
=12
2.a
=13
8dd
8dd
8dd
4dd
8cc
=14
4cc
8b
4.b
=15
4.g
8f
8e
8d
=16
2.c
=17
8a
8a
8a
4a
8b
=18
4cc
8b
4.a
=19
8dd
8dd
8dd
4dd
8ee
=20
[4.ff
8ff]
8r
8r
=21
8dd
8dd
8dd
4dd
8cc
=22
4cc
8b
4.b
=23
8b
8b
8b
4cc
8b
=24
4a
8g
4.g
=25
8a
8a
8a
4a
8b
=26
4cc
8b
4.a
=27
8dd
8dd
8dd
4dd
8ee
=28
[4.ff
8ff]
8r
8r
=29
8dd
8dd
8dd
4dd
8cc
=30
4cc
8b
4.b
=31
4.b
8b
8b
8b
=32
2.cc
==
*-
!!!ARE: Friuli
!!!ENC: Kelly Leistikow
!!!END: 2002/03/07
!!!ref: @{OTL@@FUR}/@{OTL@EN}
